build/images/bed.svg

<svg width="16" height="12" viewBox="0 0 16 12" fill="none" xmlns="http://www.w3.org/2000/svg">
<path d="M15.9954 3.3624C15.903 1.47693 14.4576 0 12.7047 0H3.29498C1.54228 0 0.0970314 1.47693 0.00468751 3.36237C0.0015625 3.4248 0 10.3773 0 10.3773C0 11.2721 0.675001 12 1.50469 12H14.495C15.3248 12 16 11.2721 16 10.3773C16 10.3773 15.9985 3.42517 15.9954 3.3624ZM3.29498 0.750004H12.7047C13.9626 0.750004 15.0197 1.71375 15.2554 3.00713H14.5399C14.3158 2.12209 13.5737 1.49987 12.7049 1.49987H8.14773C7.95567 1.49987 8.49555 1.66779 8.49555 1.87486C8.49555 2.08193 7.95567 2.24984 8.14773 2.24984H12.7049C13.1885 2.24984 13.6103 2.5535 13.8027 3.00709H13.4564C12.5889 3.00709 11.8775 3.7413 11.8288 4.66366C10.613 4.2499 9.30636 4.04297 7.99992 4.04297C6.69345 4.04297 5.38698 4.24987 4.17129 4.66363C4.1226 3.74129 3.41104 3.00709 2.54335 3.00709H2.1971C2.38941 2.55354 2.81129 2.24984 3.29491 2.24984H8.14773C8.3398 2.24984 8.49555 2.08193 8.49555 1.87486C8.49555 1.66779 8.3398 1.49987 8.14773 1.49987H3.29491C2.4261 1.49987 1.68394 2.12209 1.45988 3.00713H0.744658C0.980283 1.71375 2.03729 0.750004 3.29498 0.750004ZM11.8261 5.45181V6.72524C11.8261 7.28085 11.4067 7.73285 10.8911 7.73285H5.10854C4.5932 7.73285 4.17395 7.28081 4.17395 6.72524V5.45181C6.58804 4.57165 9.41174 4.57165 11.8261 5.45181ZM15.3044 10.3773C15.3044 10.8585 14.9413 11.25 14.495 11.25H1.50469C1.05856 11.25 0.695658 10.8585 0.695658 10.3773V10.1235V9.74847V9.37349V3.75713H2.54332C3.05888 3.75713 3.47829 4.20917 3.47829 4.7647V6.72521C3.47829 7.69441 4.20963 8.48282 5.10854 8.48282H11.4286C11.8288 8.48282 12.5217 8.00893 12.5217 6.72524V4.76474C12.5217 4.20917 12.941 3.75716 13.4563 3.75716H15.3043L15.3044 10.3773Z" fill="#777777"/>
</svg>

<svg width="16" height="12" fill="none" xmlns="http://www.w3.org/2000/svg"><path d="M15.995 3.362C15.903 1.477 14.458 0 12.705 0h-9.41C1.542 0 .097 1.477.005 3.362.002 3.425 0 10.377 0 10.377 0 11.272.675 12 1.505 12h12.99c.83 0 1.505-.728 1.505-1.623 0 0-.002-6.952-.005-7.015zM3.295.75h9.41c1.258 0 2.315.964 2.55 2.257h-.715c-.224-.885-.966-1.507-1.835-1.507H8.148c-.192 0 .348.168.348.375s-.54.375-.348.375h4.557c.483 0 .905.304 1.098.757h-.347c-.867 0-1.579.734-1.627 1.657a11.937 11.937 0 00-3.83-.621c-1.306 0-2.612.207-3.828.62-.048-.922-.76-1.656-1.628-1.656h-.346c.192-.453.614-.757 1.098-.757h4.853c.192 0 .348-.168.348-.375S8.34 1.5 8.148 1.5H3.295c-.869 0-1.611.622-1.835 1.507H.745C.98 1.714 2.037.75 3.295.75zm8.531 4.702v1.273c0 .556-.42 1.008-.935 1.008H5.11c-.516 0-.935-.452-.935-1.008V5.452c2.414-.88 5.238-.88 7.652 0zm3.478 4.925c0 .481-.363.873-.809.873H1.505c-.446 0-.81-.392-.81-.873v-6.62h1.848c.516 0 .935.452.935 1.008v1.96c0 .97.732 1.758 1.63 1.758h6.32c.4 0 1.094-.474 1.094-1.758v-1.96c0-.556.419-1.008.934-1.008h1.848v6.62z" fill="#777"/></svg>
